X: 23914
T: Loch Mullardoch
R: slip jig
M: 9/8
K: Aminor
A>AA A>cB A>GE|A>cB A>GE G>AA|
A>AA A>cB A>GE|c>de g>ed c>BG|
A>AA A>cB A>GE|A>cB A>GE G>AA|
A>AA A>cB A>GE|c>de g>ed c>eg|
a2e e>dc d>cA|a>ge e>dc d>eg|
a2e e>dc d>cA|e>ga b>ag e>gg|
a2e e>dc d>cA|a>ge e>dc d>eg|
a2e e>dc d>cA|e>ga b>ag e>dB|

